X: 1
T: Sirun Akhchik
T: Sweet Girl
O: Armenia
Z: John Chambers <jc@trillian.mit.edu>
D: Folkdance Underground vol. 3 F.U.3
M: 2/4
L: 1/8
P: in Gm:
K: Gdor
|: "F"z2 AB | c4 | dc dB | c4 | "Gm"cB dB | "F"BA cA | AG BA | "Gm"G4 :|
|: "Gm"z2 ef | g4 | f2 ef | d4 | "F"cB AB | B2 c2 | B2 AB | "Gm"G4 :|
